packages/ui-icons/svg/Solid/check-plus.svg

<svg viewBox="0 0 1920 1920" version="1.1" xmlns="http://www.w3.org/2000/svg">
    <path d="M459.896763,902.84233 L459.896763,1592.68747 L1494.66448,1592.68747 L1494.66448,1017.81652 L1724.72783,1017.81652 L1724.72783,1822.63586 L229.948381,1822.63586 L229.948381,902.84233 L459.896763,902.84233 Z M1759.26608,331.926488 L1920,496.454555 L1074.9397,1322.31417 L666.896296,923.468699 L827.745188,759.055607 L1074.9397,1000.73136 L1759.26608,331.926488 Z M459.896763,98 L459.896763,328.063356 L689.960118,328.063356 L689.960118,558.011737 L459.896763,558.011737 L459.896763,787.845144 L229.948381,787.845144 L229.948381,558.011737 L5.68434189e-14,558.011737 L5.68434189e-14,328.063356 L229.948381,328.063356 L229.948381,98 L459.896763,98 Z M1379.71328,327.982874 L1379.71328,557.931255 L804.84233,557.931255 L804.84233,327.982874 L1379.71328,327.982874 Z" stroke="none" stroke-width="1" fill-rule="evenodd"/>
</svg>

<svg viewBox="0 0 1920 1920" version="1.1" xmlns="http://www.w3.org/2000/svg">
    <path d="M229.948 98h229.949v230.063H689.96v229.949H459.897v229.833H229.948V558.012H0V328.063h229.948V98zm574.894 459.931V327.983h574.871V557.93h-574.87zM229.948 902.842h229.949v689.845h1034.767v-574.87h230.064v804.819H229.948V902.842zm844.992 97.89l684.326-668.806L1920 496.455l-845.06 825.86-408.044-398.846 160.85-164.413 247.194 241.675z" stroke="none" stroke-width="1" fill-rule="evenodd"/>
</svg>
